src/client/public/static/skull-scan.svg

<svg xmlns="http://www.w3.org/2000/svg" width="24" height="24" fill="#FCF7F8">
  <path d="M2 0C.9 0 0 .9 0 2v4h2V2h4V0H2m16 0v2h4v4h2V2c0-1.1-.9-2-2-2h-4m-6 3c-4.4 0-8 3.6-8 8 0 2.5 1.2 4.8 3 6.2V21h2v-3h2v3h2v-3h2v3h2v-3.8c1.8-1.5 3-3.7 3-6.2 0-4.4-3.6-8-8-8M8 14c-1.1 0-2-.9-2-2s.9-2 2-2 2 .9 2 2-.9 2-2 2m2.5 2 1.5-3 1.5 3h-3m5.5-2c-1.1 0-2-.9-2-2s.9-2 2-2 2 .9 2 2-.9 2-2 2M0 18v4c0 1.1.9 2 2 2h4v-2H2v-4H0m22 0v4h-4v2h4c1.1 0 2-.9 2-2v-4h-2Z"/>
</svg>

<?xml version="1.0" encoding="UTF-8"?><!DOCTYPE svg PUBLIC "-//W3C//DTD SVG 1.1//EN" "http://www.w3.org/Graphics/SVG/1.1/DTD/svg11.dtd"><svg xmlns="http://www.w3.org/2000/svg" xmlns:xlink="http://www.w3.org/1999/xlink" version="1.1" width="24" height="24" viewBox="0 0 24 24" fill="#FCF7F8"><path d="M2 0C.9 0 0 .9 0 2V6H2V2H6V0H2M18 0V2H22V6H24V2C24 .9 23.1 0 22 0H18M12 3C7.6 3 4 6.6 4 11C4 13.5 5.2 15.8 7 17.2V21H9V18H11V21H13V18H15V21H17V17.2C18.8 15.7 20 13.5 20 11C20 6.6 16.4 3 12 3M8 14C6.9 14 6 13.1 6 12S6.9 10 8 10 10 10.9 10 12 9.1 14 8 14M10.5 16L12 13L13.5 16H10.5M16 14C14.9 14 14 13.1 14 12S14.9 10 16 10 18 10.9 18 12 17.1 14 16 14M0 18V22C0 23.1 .9 24 2 24H6V22H2V18H0M22 18V22H18V24H22C23.1 24 24 23.1 24 22V18H22Z" /></svg>
